X:1
T:Io te voglio bene assaje
T:Io te voglio bene assaje
T:Canzonetta napoletana
T:Anonimo (1839?)
T:Pecché quanno me vide te 'ngrife comm' 'a gatto? Nenne' che t'aggio fatto ca no mme puo' vedé? Io t' 'aggio amato tanto, si t'amo tu lo saie Te voglio bene assaie e tu nun pienze a me. Ricordate lu juorno Ca stive a me vicino E te scorreano ‘nzine Li lacreme accussì Diciste a me "Nun chiagnere Ca tu dd’o mio sarraje" Io te voglio bbene assaie e tu nun pienze a mme
T:Guardame 'nfaccia e vvide comme songo arredutto sicco, paliento e brutto, nennella mia pe' tte! Cusuto affilo duppio co' tte me vedarraie Io te voglio bbene assaie e tu nun pienze a mme Quanno so' fatto cennere tanno me chiagnarraie sempe addimannarraje: "Nennillo mio addo' sta?" la fossa mia tu arape e llà me truvarraie: Io te voglio bbene assaie e tu nun pienze a mme!» 
T:by IMSLP - Public domain
T:by IMSLP - Public domain
C:Anonimo (1839?)
Z:by IMSLP - Public domain
%%score 1 { 2 | ( 3 4 ) }
L:1/8
Q:1/4=80
M:6/8
K:A
V:1 treble nm="Canto"
V:2 treble nm="Piano"
V:3 bass 
V:4 bass 
V:1
 E F G A2 B | (c2 A) E2 z | d c B ^A2 B | c3 A2 z | E F G A2 B | (c2 A) E2 z | e ^d c ^B2 d | %7
w: Nzom\- ma song' io lo|fau- * zo|Ap\- pi\- la si ma\-|je\- sta|Ca l'ar\- te to\- ja è|che- * sta,|Lo di\- co me\- re\-|
 c2 z z2 c | (!>!d2 c) (!>!d2 c) | (!>!c2 A) F2 c | (!>!d2 c) (!>!d2 c) | c2 c !>!e2 d | %12
w: rà ~I'|ja\- stem\- ma' vor\-|ri- * a Lo|juor\- no che t'a\-|ma\- je Io te|
 c2 B F2 B | (B2 A) E2 A | A2 G A2 B | c2 z e2 d | c2 B F2 B | (B2 A) E2 A | A2 G c2 B | %19
w: vo\- glio be\- ne as\-|sa- * je, e|tu non pienz' a|me, io te|vo\- glio be\- ne as\-|sa- * je, e|tu non pienz' a|
 A2 z z2 z | z6 | z6 | z6 | z6!D.C.! |] %24
w: me.|||||
V:2
 z C[I:staff +1]E,[I:staff -1] z ^D=D | z C[I:staff +1]E,[I:staff -1] z ^D=D | %2
 z C[I:staff +1]E,[I:staff -1] z ^D=D | z C[I:staff +1]E,[I:staff -1] z C[I:staff +1]E, | %4
[I:staff -1] z C[I:staff +1]E,[I:staff -1] z ^D=D | %5
 z C[I:staff +1]E,[I:staff -1] z C[I:staff +1]E, | %6
[I:staff -1] z C[I:staff +1]E,[I:staff -1] z ^B,[I:staff +1]^D, |[I:staff -1] C2 z z2 z | %8
 z[I:staff +1] ([^E,A,][I:staff -1]D) z[I:staff +1] ([E,G,][I:staff -1]D) | %9
 z[I:staff +1] ([F,A,][I:staff -1]C) z[I:staff +1] ([F,A,][I:staff -1]C) | %10
 z[I:staff +1] ([^E,G,][I:staff -1]D) z[I:staff +1] ([E,G,][I:staff -1]D) | %11
 z[I:staff +1] ([F,A,]C)[I:staff -1] z2 z | z D[I:staff +1]F,[I:staff -1] z D[I:staff +1]=F, | %13
[I:staff -1] z C[I:staff +1]E,[I:staff -1] z C[I:staff +1]E, | %14
[I:staff -1] z [B,D][I:staff +1]E,[I:staff -1] z D[I:staff +1]E, | %15
[I:staff -1] z C[I:staff +1]E,[I:staff -1] z C[I:staff +1]E, | %16
[I:staff -1] z D[I:staff +1]F,[I:staff -1] z D[I:staff +1]=F, | %17
[I:staff -1] z C[I:staff +1]E,[I:staff -1] z C[I:staff +1]E, | %18
[I:staff -1] z [B,D][I:staff +1]E,[I:staff -1] z D[I:staff +1]E, | %19
[I:staff -1] [A,C]2 z [ee']2 [dd'] | [cc']2 [Bb] [Ff]2 [Bb] | [Bb]2 [Aa] [Ee]2 [Aa] | %22
 [Aa]2 [Gg] [cc']2 [Bb] | [Aa]2 z z2 z |] %24
V:3
 x A, x2 F,G, | x A, x2 A,E, | x G, x2 G,E, | x A, x2 A, x | x A, x2 F,G, | x A, x2 A, x | %6
 x G, x2 F, x | x6 | x6 | x6 | x6 | x6 | x B, x2 B, x | x A, x2 A, x | x4 G, x | x A, x2 A, x | %16
 x B, x2 B, x | x A, x2 A, x | x4 G, x | x6 | x6 | x6 | x6 | x6 |] %24
V:4
 A,,2 z A,,2 z | A,,2 z A,,2 z | E,,2 z E,,2 z | A,,2 z A,,2 z | A,,2 z A,,2 z | A,,2 z A,,2 z | %6
 G,,2 z G,,2 z | [C,E,]2 z z2 z | B,,2 z B,,2 z | A,,2 z A,,2 z | B,,2 z A,,2 z | A,,2 z z2 z | %12
 [D,,D,]2 z [D,,D,]2 z | [E,,E,]2 z [E,,E,]2 z | [E,,E,]2 z [E,,E,]2 z | A,,2 z A,,2 z | %16
 [D,,D,]2 z [D,,D,]2 z | [E,,E,]2 z [E,,E,]2 z | [E,,E,]2 z [E,,E,]2 z | A,,2 z z2 z | %20
 D,[F,B,][F,B,] D,[F,B,][F,B,] | E,[A,C][A,C] E,[A,C][A,C] | E,[B,D][B,D] E,[G,D][G,D] | %23
 [A,C]2 z z2 z |] %24

